icons/emergency_operations_center_fill.svg

<svg width="48" height="48" viewBox="0 0 48 48" fill="none" xmlns="http://www.w3.org/2000/svg">
<path fill-rule="evenodd" clip-rule="evenodd" d="M15 11C15 10.4477 15.4477 10 16 10C16.5523 10 17 10.4477 17 11V12H19C20.6569 12 22 13.3431 22 15C22 16.6569 20.6569 18 19 18H17V19H21V21H17V24H21.5857L26.0624 19.5232C24.4384 17.0772 24.5152 13.8352 26.2927 11.4643C26.4906 11.2004 26.7096 10.9472 26.9496 10.7071C27.1897 10.467 27.4429 10.248 27.7069 10.0501L31.8995 14.2428L32.8494 13.293C33.2399 12.9025 33.8731 12.9025 34.2636 13.293C34.6541 13.6836 34.6541 14.3167 34.2636 14.7073L33.3137 15.657L37.5061 19.8494C37.3082 20.1133 37.0892 20.3665 36.8491 20.6066C36.6091 20.8467 36.3559 21.0657 36.0919 21.2636C34.0221 22.8153 31.2884 23.0709 29 22.0302V24H42V26H40V40H41C41.5523 40 42 40.4477 42 41C42 41.5523 41.5523 42 41 42H7C6.44772 42 6 41.5523 6 41C6 40.4477 6.44772 40 7 40H8V26H6V24H15V21H11V19H15V18H13C11.3431 18 10 16.6569 10 15C10 13.3431 11.3431 12 13 12H15V11ZM27 21.4141L24.4141 24H27V21.4141ZM31 40H36V32H31V40ZM13 14H15V16H13C12.4477 16 12 15.5523 12 15C12 14.4477 12.4477 14 13 14ZM19 14H17V16H19C19.5523 16 20 15.5523 20 15C20 14.4477 19.5523 14 19 14ZM34.6571 19.8288C32.7157 21.115 30.0743 20.9028 28.3638 19.1924C26.6534 17.4819 26.4413 14.8405 27.7275 12.8992L34.6571 19.8288ZM17 36V32H12V36H17ZM24 36V32H19V36H24Z" fill="black"/>
</svg>

<svg
  xmlns="http://www.w3.org/2000/svg"
  width="24"
  height="24"
  viewBox="0 0 24 24"
  fill="none"
  stroke="currentColor"
  stroke-width="2"
  stroke-linecap="round"
  stroke-linejoin="round"
>
  <path
    fill-rule="evenodd"
    d="M15 11a1 1 0 1 1 2 0v1h2a3 3 0 1 1 0 6h-2v1h4v2h-4v3h4.586l4.476-4.477a7.006 7.006 0 0 1 1.645-9.473l4.192 4.193.95-.95a1 1 0 0 1 1.415 1.414l-.95.95 4.192 4.192a7 7 0 0 1-1.414 1.415A7.01 7.01 0 0 1 29 22.03V24h13v2h-2v14h1a1 1 0 1 1 0 2H7a1 1 0 1 1 0-2h1V26H6v-2h9v-3h-4v-2h4v-1h-2a3 3 0 1 1 0-6h2zm12 10.414L24.414 24H27zM31 40h5v-8h-5zM13 14h2v2h-2a1 1 0 1 1 0-2m6 0h-2v2h2a1 1 0 1 0 0-2m15.657 5.829a5.002 5.002 0 0 1-6.93-6.93zM17 36v-4h-5v4zm7 0v-4h-5v4z"
    clip-rule="evenodd"
  />
</svg>
